src/lib/images/svgs/bg-curved-lines.svg

<svg xmlns="http://www.w3.org/2000/svg" width="1024" height="450" preserveAspectRatio="none"><g fill="none" stroke="rgba(242, 63, 66, 0.1)" stroke-width="2" mask="url(&quot;#a&quot;)"><path d="M564.81 512.84c79.1-2.38 125.57-110.85 292.34-121.43 166.78-10.58 203.96-192.93 292.35-202.5"/><path d="M586.19 533.22c104.57-30.07 141-323.31 290.29-324.29 149.29-.98 204.64 176.91 290.29 184.5"/><path d="M133.4 527.62c131.79-4.11 227.59-199.17 486.13-204.58 258.54-5.41 359.06-146.86 486.13-148.5"/><path d="M559.01 466.62c91.01-8.92 124.46-185.88 304.81-202.22 180.36-16.34 215.47-181.54 304.82-189"/><path d="M272.06 522.05c130.39-9.16 224.22-261.11 452.82-261.41 228.61-.3 334.71 133.57 452.83 135"/></g><defs><mask id="a"><path fill="#fff" d="M0 0h1024v450H0z"/></mask></defs></svg>

<svg xmlns="http://www.w3.org/2000/svg" version="1.1" xmlns:xlink="http://www.w3.org/1999/xlink" xmlns:svgjs="http://svgjs.com/svgjs" width="1024" height="450" preserveAspectRatio="none" viewBox="0 0 1024 450"><g mask="url(&quot;#SvgjsMask1494&quot;)" fill="none"><path d="M564.81 512.84C643.91 510.46 690.38 401.99 857.15 391.41 1023.93 380.83 1061.11 198.48 1149.5 188.91" stroke="rgba(242, 63, 66, 0.1)" stroke-width="2"></path><path d="M586.19 533.22C690.76 503.15 727.19 209.91 876.48 208.93 1025.77 207.95 1081.12 385.84 1166.77 393.43" stroke="rgba(242, 63, 66, 0.1)" stroke-width="2"></path><path d="M133.4 527.62C265.19 523.51 360.99 328.45 619.53 323.04 878.07 317.63 978.59 176.18 1105.66 174.54" stroke="rgba(242, 63, 66, 0.1)" stroke-width="2"></path><path d="M559.01 466.62C650.02 457.7 683.47 280.74 863.82 264.4 1044.18 248.06 1079.29 82.86 1168.64 75.4" stroke="rgba(242, 63, 66, 0.1)" stroke-width="2"></path><path d="M272.06 522.05C402.45 512.89 496.28 260.94 724.88 260.64 953.49 260.34 1059.59 394.21 1177.71 395.64" stroke="rgba(242, 63, 66, 0.1)" stroke-width="2"></path></g><defs><mask id="SvgjsMask1494"><rect width="1024" height="450" fill="#ffffff"></rect></mask></defs></svg>
